X:93
T:Brick Makers. Ru2.093, The
%%VWML:RutherfordVol2-2249-p47-0
F:http://www.vwml.org/record/RutherfordVol2/2249/p47
B:RUTHERFORD Complete Collection of 200 Country Dances Vol.2; 1759.
Z:vmp.Mike Hicken 2015 www.village-music-project.org.uk
M:2/4
Q:1/4=140
K:Gm
B/c/|dB2d|cA2c|BG2B|A^F D2|GABc|BAG^F|G2G2|G3 :|
|:B/c/|db2a|ag2f|fg2f|f2gA|B2 cd|e2 fg|fdcB|A2F2|
BA2c|cB2d|dc2e|^F2D2|GABc|BAG^F|G2G2G3 :|
W:
W: Foot it Four change sides and clap hands 3
W: times .|  the same back again :|  cross over two Cu:
W: lead to the top cast off & clap hands 3 times |
W: Hands round 4 at bottom Right and left at top
W: and Clap Hands 3 times :|
T:Jerry Buck. Ru2.094
L:1/8
B:RUTHERFORD Complete Collection of 200 Country Dances Vol.2; 1759.
Z:vmp.Mike Hicken 2015 www.village-music-project.org.uk
M:C|
Q:1/4=140
K:Bb
(Bd)g!wedge!b (Acf)!wedge!a|(GBe)!wedge!g !wedge!f(cBA)|!wedge!B(GFE) !wedge!B(FED)|A,B A/B/c/A/ B2 B,2 :|
|: B2 (d/c/B) fBdB| Fc A/B/c/A/ Fc A/B/c/A/| B2 (d/c/B) fBgB|GB A/B/c/A/ B2 B,2 :|
|: bfdB fdBF|Gc=Bd cBcG|bagf edcB|FB A/B/c/A/ B2 B,2 :|
W:
W: Cast off one Cu: & turn .|  Cast up again &
W: turn :|  cross over two Cu: .|.  Lead to the top &
W: cast off :|.  Hands round 4 at bottom .|:  Right
W: and Left at top :|
